X: 2
T: Iggie and Squiggie
C: Jerry Holland
F: http://www.thesession.org/tunes/display/7445
Z: 2011 John Chambers <jc:trillian.mit.edu>
M: C|
L: 1/8
K: D
ze |\
"D"fgfe d2fd | "G"B2dB "D"BAFA | "D"fgfe d2fd | "A7"ABde fece |
"D"fgfe d2fd | "G"B2dB "D"BAFA | "D"fgfe "(G)"dedc | "A7"BABc "D"d2 :|
|: fg |\
"D"ad d/d/d adbd | "D"ad d/d/d "A7"agfg | "D"ad d/d/d adbd | "D"fede "A7"feeg |
"D"ad d/d/d adbd | "D"ad d/d/d "G"g4 | "D"fgfe "(G)"dedc | "A7"BABc "D"d2 :|

%%sep 2 1 500

